packages/gestalt-icons-android/vr-theme/ic_vr_video-rewind-10-seconds_gestalt.svg

<svg width="24" height="24" viewBox="0 0 24 24" fill="none" xmlns="http://www.w3.org/2000/svg">
<path d="M12 2C8.29999 2 5.06755 4.00951 3.33759 7H5.99939L5.99996 9H0V3H2V5.36475C4.149 2.13238 7.8247 0 12 0C18.6274 0 24 5.37258 24 12C24 18.6274 18.6274 24 12 24C8.70321 24 5.7153 22.6692 3.54743 20.5179L4.95622 19.0983C6.76474 20.893 9.25212 22 12 22C17.5228 22 22 17.5228 22 12C22 6.47715 17.5228 2 12 2Z" fill="black"/>
<path fill-rule="evenodd" clip-rule="evenodd" d="M14 15.25C15.6569 15.25 17 13.7949 17 12C17 10.2051 15.6569 8.75 14 8.75C12.3431 8.75 11 10.2051 11 12C11 13.7949 12.3431 15.25 14 15.25ZM14 13.25C14.4046 13.25 15 12.8441 15 12C15 11.1559 14.4046 10.75 14 10.75C13.5954 10.75 13 11.1559 13 12C13 12.8441 13.5954 13.25 14 13.25Z" fill="black"/>
<path d="M8 15V9H10V15H8Z" fill="black"/>
</svg>

<svg xmlns="http://www.w3.org/2000/svg" width="24" height="24"><path d="M12 2a10 10 0 0 0-8.66 5H6v2H0V3h2v2.36A11.99 11.99 0 0 1 24 12a12 12 0 0 1-20.45 8.52l1.4-1.42A10 10 0 1 0 12 2m-1 10c0-1.8 1.34-3.25 3-3.25s3 1.46 3 3.25c0 1.8-1.34 3.25-3 3.25s-3-1.46-3-3.25m3 1.25c.4 0 1-.4 1-1.25 0-.84-.6-1.25-1-1.25s-1 .4-1 1.25c0 .84.6 1.25 1 1.25M8 15V9h2v6z"/></svg>
